X: 4322
T: Colonel Hamilton of Pencaitlands welcome home
C: by Nath. Gow
%R: slip-jig
B: Niel Gow & Sons "A Fourth Collection of Strathspey Reels, etc." v.4 p.32 #2
Z: 2022 John Chambers <jc:trillian.mit.edu>
M: 9/8
L: 1/8
K: Bb
% - - - - - - - - - -
V: 1 staves=2
D !segno!|\
B,2F- FDB {B}A2C | B,2F- FDF GAB | dcB .F(.D.B) {B}A2C | B,DF BFD B,2 :| e | Td2f- fdf e2c | Td2f- fdf Tg>ab |
Td2f- fdf e2c | Td>ef ecA B2e || Td2f- fdf e2c | d2f- fdf gab | f2g/a/ bfd gec | fdB ecA B3 !segno!|]
% - - - - - - - - - -
% Voice 2 preserves the staff layout in the book.
V: 2 clef=bass middle=d
z !segno!|\
B3 B3 c3 | B3 B3 e3 | d3 B3 c3 | B3 F3 [B2B,2] :| z | b3 b3 f3 | b3 [b3d3] e3 |
b3 b3 a3 | b3 f3 B3 || b3 b3 f3 | b3 b3 e3 | d3 d3 e3 | f3 F3 B3 !segno!|]


